X:3024
T:Hallo! N\aa vinker sol og luft
C:anon.
O:Norway
N:Mads Berg's lyrics are still copyright protected.
R:Marsj, march
Z:Transcribed by Frank Nordberg - http://www.musicaviva.com
F:http://abc.musicaviva.com/tunes/norway/hallo-naa-vinker/hallo-naa-vinker-1.abc
M:C
L:1/8
Q:1/4=132
K:C
G2|"C"c3G GFED|"C"C2C2 C3SE|"G/D"DGGB "D"d2cA|"G"G4 z2 GF|
"C"E2E2 A3G|"G"GFFE F2 z E|"G"D2D2 G3F|"C"FEED E2 z G|
"C"c3G FEDC|"F"A4 z2 B2|"C/G"c3G e2"G7"d2|"C"c4 z2|]
W:
W:
W:  From Musica Viva - http://www.musicaviva.com
W:  the Internet center for free sheet music downloads.
